X:667
T:Rolling In the Rye Grass
S:The Green Tree session, 1995
Z:Nigel Gatherer
L:1/8
M:4/4
K:D
A3 F DFAF | G2 BG dGBG | FAAF DFAF | GBAF E2 D2 :|
ABde f3 a | gefd  edBd | ABde f3 g | afdf e2 d2 :|]
<end>
<start>
